X:187 
T:Slainte na nGaodhal  
B:RC3.040 (Gaelic = "Health to the Gaels" [I think])
F:file ID roche.3/187sng
Z:bill@capeirish.com
N:This is a march setting of "Loch Lomond". 
Q:120
L:1/8
M:C
K:G
"march""moderato"
D2|G2G>A B2AG|A2A>G E2 zD|G2G>G G2Bd|e4 d2 zd|
e2 e>d B3d|cBAG E3D|GGBd e2dB|A4 G2||
D2|G2G>A B2BA|G2G>E D3D|G2G>G G2Bd|e4 d2 zd|
e2ed B2Bd|cBAG E3D|G>GBd e2dB|A4 G4|]

